Dominus_Funeral/22/categories/applications-featured.svg

<svg xmlns="http://www.w3.org/2000/svg" width="24" height="24" viewBox="0 0 6.35 6.35"><g fill="#1a1a1a"><path d="M4.53.18c.07.08.1.51.12 1.53 0 .37 0 .51-.05.67l-.06.25-.04.12c-.04.06.01.25.07.25.05 0 .05.3 0 .33-.06.04-.14-.1-.11-.19.01-.07 0-.08-.06-.06-.04.02-.07.01-.07 0a.63.63 0 0 0-.1-.15l-.11-.12.07.14c.04.08.07.17.07.2 0 .04.01.05.03.04.02 0 .07.05.12.13a1.99 1.99 0 0 0 .46.5c.05.04.1.1.11.14.03.09.02.34-.02.37-.03.01-.22.38-.23.41 0 .07-.06.11-.1.08a.15.15 0 0 0-.09-.04c-.04 0-.03.02.03.07.05.04.07.07.05.07-.02 0-.05.04-.05.09l-.01.09-.1-.07c-.13-.1-.15-.1-.04.02.05.05.08.14.08.2 0 .08 0 .09-.07.07-.06-.02-.07-.01-.06.03.02.04 0 .06-.02.06a.08.08 0 0 0-.07.04c-.01.03-.02.03-.06 0-.07-.07-.12-.05-.05.02.06.07.06.07-.02.05l-.08-.02.07.08c.07.09.07.09-.1.02-.04-.01-.06 0-.06.01 0 .02.01.04.03.04l.1.05c.05.05.05.05-.11.04a.93.93 0 0 1-.57-.27c-.08-.09-.11-.15-.12-.3a.59.59 0 0 1 .01-.22c.02-.04.03-.01.03.06 0 .1.09.25.12.21a.44.44 0 0 0 .03-.14c0-.07.01-.13.02-.13.02 0 .02-.06.01-.13-.01-.22.07-.43.22-.53.08-.05.16-.1.18-.08.02 0 .1.09.16.19.07.1.14.18.17.19.03.01.02-.01-.02-.06-.14-.15-.14-.18-.03-.16.1.03.09.02-.05-.08-.17-.12-.18-.16-.05-.12l.1.02-.1-.1c-.06-.06-.1-.11-.08-.11.02 0 0-.04-.03-.07-.04-.04-.05-.07-.02-.1.05-.02-.17-.24-.3-.27-.04-.02-.08-.04-.08-.06 0-.01-.04-.03-.08-.03-.18 0-.65-.34-.76-.55-.09-.16-.03-.37.13-.43.05-.02.08-.04.07-.05-.05-.04-.23.1-.27.2-.1.22.05.46.45.77.27.2.29.23.29.5 0 .09.02.2.05.26.1.18.03.3-.15.26-.07-.02-.09-.02-.07.02.04.06-.03.04-.09-.03a2.71 2.71 0 0 1-.19-.48 5.68 5.68 0 0 0-.28-.7c-.2-.38-.24-.6-.15-.73.1-.11.32-.18.43-.13.05.02.1.07.1.1 0 .02.02.06.06.07.04 0 .07.03.07.05 0 .03.13.08.28.09.1 0 .1 0-.08-.06-.15-.05-.2-.09-.22-.16a.37.37 0 0 1 .11-.35c.08-.07.11-.09.23-.07.18.03.28.12.31.31.08.4.1.43.15.44.03 0 .06 0 .06-.04.01-.08.02-.1.04-.14l.05-.58c.03-.67.04-.77.07-.85a.11.11 0 0 0-.01-.1 2.9 2.9 0 0 1 0-.9c.07-.05.3-.04.33 0z"/><path d="M1.61 1.14c.06.05.12.18.2.43l.15.43a6.72 6.72 0 0 0 .34.9c.06.12.11.25.12.3.02.03.08.09.14.12.11.05.22.21.3.5.04.12.04.14-.03.18-.1.07-.09.12.02.1.1-.03.15.02.15.15 0 .11.16.3.27.33.07.02.09.04.07.1l-.15.73c-.01.08 0 .14.04.19.05.07.05.07.04-.06V5.4a.8.8 0 0 1 .16.15.6.6 0 0 0 .2.18c.08.03.06.09-.04.09-.03 0-.06.01-.06.03 0 .02-.04.03-.08.03-.06 0-.08 0-.07.05 0 .04-.01.06-.05.06-.02 0-.05.02-.05.04 0 .03.07.03.22.02.15 0 .25 0 .28.03.08.06.08.1 0 .08a.5.5 0 0 0-.17.02c-.17.04-.43.03-.48-.01a.38.38 0 0 0-.15-.06.23.23 0 0 1-.13-.04c-.03-.04-.01-.04.27-.05l.13-.01c0-.04-.15-.09-.28-.1-.13-.02-.15-.02-.13.03.04.1-.08.05-.22-.1a1.9 1.9 0 0 1-.35-.67c0-.03-.02-.05-.03-.05-.02 0-.04-.04-.05-.1l-.06-.3a5.13 5.13 0 0 1-.05-.58 1.54 1.54 0 0 0-.06-.4C2 3.73 2 3.68 2 3.64a.53.53 0 0 0-.05-.18 1.05 1.05 0 0 1-.08-.28.58.58 0 0 0-.05-.2c-.02-.01-.03-.05-.03-.1a.52.52 0 0 0-.05-.17c-.09-.2-.2-.56-.17-.59 0-.02 0-.07-.03-.12-.07-.13-.18-.6-.18-.71.01-.08.1-.21.15-.21l.11.07zm1.86 2.4l.04.13c.09.25.15.38.2.43.06.03.1.07.12.07.05 0 .14-.13.15-.22l-.01-.02a.54.54 0 0 0-.3-.28c-.05-.02-.1-.05-.1-.07 0-.02-.04-.04-.1-.04z"/></g></svg>

<?xml version="1.0" encoding="UTF-8" standalone="no"?>
<svg
   xmlns:dc="http://purl.org/dc/elements/1.1/"
   xmlns:cc="http://creativecommons.org/ns#"
   xmlns:rdf="http://www.w3.org/1999/02/22-rdf-syntax-ns#"
   xmlns:svg="http://www.w3.org/2000/svg"
   xmlns="http://www.w3.org/2000/svg"
   xmlns:sodipodi="http://sodipodi.sourceforge.net/DTD/sodipodi-0.dtd"
   xmlns:inkscape="http://www.inkscape.org/namespaces/inkscape"
   width="24"
   height="24"
   viewBox="0 0 6.35 6.35"
   version="1.1"
   id="svg8"
   sodipodi:docname="applications-featured.svg"
   inkscape:version="0.92.4 (5da689c313, 2019-01-14)">
  <metadata
     id="metadata14">
    <rdf:RDF>
      <cc:Work
         rdf:about="">
        <dc:format>image/svg+xml</dc:format>
        <dc:type
           rdf:resource="http://purl.org/dc/dcmitype/StillImage" />
        <dc:title></dc:title>
      </cc:Work>
    </rdf:RDF>
  </metadata>
  <defs
     id="defs12" />
  <sodipodi:namedview
     pagecolor="#ffffff"
     bordercolor="#666666"
     borderopacity="1"
     objecttolerance="10"
     gridtolerance="10"
     guidetolerance="10"
     inkscape:pageopacity="0"
     inkscape:pageshadow="2"
     inkscape:window-width="1142"
     inkscape:window-height="480"
     id="namedview10"
     showgrid="false"
     inkscape:zoom="9.8333333"
     inkscape:cx="1.2711864"
     inkscape:cy="12"
     inkscape:window-x="0"
     inkscape:window-y="25"
     inkscape:window-maximized="0"
     inkscape:current-layer="svg8" />
  <g
     id="g6"
     style="fill:#1a1a1a">
    <path
       d="m 4.53,0.18 c 0.07,0.08 0.1,0.51 0.12,1.53 0,0.37 0,0.51 -0.05,0.67 L 4.54,2.63 4.5,2.75 C 4.46,2.81 4.51,3 4.57,3 4.62,3 4.62,3.3 4.57,3.33 4.51,3.37 4.43,3.23 4.46,3.14 4.47,3.07 4.46,3.06 4.4,3.08 4.36,3.1 4.33,3.09 4.33,3.08 A 0.63,0.63 0 0 0 4.23,2.93 L 4.12,2.81 4.19,2.95 c 0.04,0.08 0.07,0.17 0.07,0.2 0,0.04 0.01,0.05 0.03,0.04 0.02,0 0.07,0.05 0.12,0.13 a 1.99,1.99 0 0 0 0.46,0.5 C 4.92,3.86 4.97,3.92 4.98,3.96 5.01,4.05 5,4.3 4.96,4.33 4.93,4.34 4.74,4.71 4.73,4.74 4.73,4.81 4.67,4.85 4.63,4.82 A 0.15,0.15 0 0 0 4.54,4.78 C 4.5,4.78 4.51,4.8 4.57,4.85 4.62,4.89 4.64,4.92 4.62,4.92 4.6,4.92 4.57,4.96 4.57,5.01 L 4.56,5.1 4.46,5.03 C 4.33,4.93 4.31,4.93 4.42,5.05 4.47,5.1 4.5,5.19 4.5,5.25 4.5,5.33 4.5,5.34 4.43,5.32 4.37,5.3 4.36,5.31 4.37,5.35 4.39,5.39 4.37,5.41 4.35,5.41 A 0.08,0.08 0 0 0 4.28,5.45 C 4.27,5.48 4.26,5.48 4.22,5.45 4.15,5.38 4.1,5.4 4.17,5.47 4.23,5.54 4.23,5.54 4.15,5.52 L 4.07,5.5 4.14,5.58 C 4.21,5.67 4.21,5.67 4.04,5.6 4,5.59 3.98,5.6 3.98,5.61 c 0,0.02 0.01,0.04 0.03,0.04 L 4.11,5.7 C 4.16,5.75 4.16,5.75 4,5.74 A 0.93,0.93 0 0 1 3.43,5.47 C 3.35,5.38 3.32,5.32 3.31,5.17 A 0.59,0.59 0 0 1 3.32,4.95 c 0.02,-0.04 0.03,-0.01 0.03,0.06 0,0.1 0.09,0.25 0.12,0.21 A 0.44,0.44 0 0 0 3.5,5.08 C 3.5,5.01 3.51,4.95 3.52,4.95 3.54,4.95 3.54,4.89 3.53,4.82 3.52,4.6 3.6,4.39 3.75,4.29 3.83,4.24 3.91,4.19 3.93,4.21 3.95,4.21 4.03,4.3 4.09,4.4 4.16,4.5 4.23,4.58 4.26,4.59 4.29,4.6 4.28,4.58 4.24,4.53 4.1,4.38 4.1,4.35 4.21,4.37 4.31,4.4 4.3,4.39 4.16,4.29 3.99,4.17 3.98,4.13 4.11,4.17 l 0.1,0.02 -0.1,-0.1 C 4.05,4.03 4.01,3.98 4.03,3.98 4.05,3.98 4.03,3.94 4,3.91 3.96,3.87 3.95,3.84 3.98,3.81 4.03,3.79 3.81,3.57 3.68,3.54 3.64,3.52 3.6,3.5 3.6,3.48 3.6,3.47 3.56,3.45 3.52,3.45 3.34,3.45 2.87,3.11 2.76,2.9 2.67,2.74 2.73,2.53 2.89,2.47 2.94,2.45 2.97,2.43 2.96,2.42 2.91,2.38 2.73,2.52 2.69,2.62 c -0.1,0.22 0.05,0.46 0.45,0.77 0.27,0.2 0.29,0.23 0.29,0.5 0,0.09 0.02,0.2 0.05,0.26 0.1,0.18 0.03,0.3 -0.15,0.26 C 3.26,4.39 3.24,4.39 3.26,4.43 3.3,4.49 3.23,4.47 3.17,4.4 A 2.71,2.71 0 0 1 2.98,3.92 5.68,5.68 0 0 0 2.7,3.22 C 2.5,2.84 2.46,2.62 2.55,2.49 2.65,2.38 2.87,2.31 2.98,2.36 c 0.05,0.02 0.1,0.07 0.1,0.1 0,0.02 0.02,0.06 0.06,0.07 0.04,0 0.07,0.03 0.07,0.05 0,0.03 0.13,0.08 0.28,0.09 0.1,0 0.1,0 -0.08,-0.06 C 3.26,2.56 3.21,2.52 3.19,2.45 A 0.37,0.37 0 0 1 3.3,2.1 C 3.38,2.03 3.41,2.01 3.53,2.03 c 0.18,0.03 0.28,0.12 0.31,0.31 0.08,0.4 0.1,0.43 0.15,0.44 0.03,0 0.06,0 0.06,-0.04 C 4.06,2.66 4.07,2.64 4.09,2.6 L 4.14,2.02 C 4.17,1.35 4.18,1.25 4.21,1.17 a 0.11,0.11 0 0 0 -0.01,-0.1 2.9,2.9 0 0 1 0,-0.9 c 0.07,-0.05 0.3,-0.04 0.33,0 z"
       id="path2"
       inkscape:connector-curvature="0" />
    <path
       d="m 1.61,1.14 c 0.06,0.05 0.12,0.18 0.2,0.43 L 1.96,2 A 6.72,6.72 0 0 0 2.3,2.9 C 2.36,3.02 2.41,3.15 2.42,3.2 2.44,3.23 2.5,3.29 2.56,3.32 2.67,3.37 2.78,3.53 2.86,3.82 2.9,3.94 2.9,3.96 2.83,4 2.73,4.07 2.74,4.12 2.85,4.1 2.95,4.07 3,4.12 3,4.25 3,4.36 3.16,4.55 3.27,4.58 3.34,4.6 3.36,4.62 3.34,4.68 L 3.19,5.41 C 3.18,5.49 3.19,5.55 3.23,5.6 3.28,5.67 3.28,5.67 3.27,5.54 V 5.4 a 0.8,0.8 0 0 1 0.16,0.15 0.6,0.6 0 0 0 0.2,0.18 c 0.08,0.03 0.06,0.09 -0.04,0.09 -0.03,0 -0.06,0.01 -0.06,0.03 0,0.02 -0.04,0.03 -0.08,0.03 -0.06,0 -0.08,0 -0.07,0.05 0,0.04 -0.01,0.06 -0.05,0.06 -0.02,0 -0.05,0.02 -0.05,0.04 0,0.03 0.07,0.03 0.22,0.02 0.15,0 0.25,0 0.28,0.03 0.08,0.06 0.08,0.1 0,0.08 A 0.5,0.5 0 0 0 3.61,6.18 C 3.44,6.22 3.18,6.21 3.13,6.17 A 0.38,0.38 0 0 0 2.98,6.11 0.23,0.23 0 0 1 2.85,6.07 C 2.82,6.03 2.84,6.03 3.12,6.02 L 3.25,6.01 C 3.25,5.97 3.1,5.92 2.97,5.91 2.84,5.89 2.82,5.89 2.84,5.94 2.88,6.04 2.76,5.99 2.62,5.84 A 1.9,1.9 0 0 1 2.27,5.17 C 2.27,5.14 2.25,5.12 2.24,5.12 2.22,5.12 2.2,5.08 2.19,5.02 L 2.13,4.72 A 5.13,5.13 0 0 1 2.08,4.14 1.54,1.54 0 0 0 2.02,3.74 C 2,3.73 2,3.68 2,3.64 A 0.53,0.53 0 0 0 1.95,3.46 1.05,1.05 0 0 1 1.87,3.18 0.58,0.58 0 0 0 1.82,2.98 C 1.8,2.97 1.79,2.93 1.79,2.88 A 0.52,0.52 0 0 0 1.74,2.71 C 1.65,2.51 1.54,2.15 1.57,2.12 1.57,2.1 1.57,2.05 1.54,2 1.47,1.87 1.36,1.4 1.36,1.29 1.37,1.21 1.46,1.08 1.51,1.08 l 0.11,0.07 z m 1.86,2.4 0.04,0.13 c 0.09,0.25 0.15,0.38 0.2,0.43 0.06,0.03 0.1,0.07 0.12,0.07 0.05,0 0.14,-0.13 0.15,-0.22 L 3.97,3.93 A 0.54,0.54 0 0 0 3.67,3.65 C 3.62,3.63 3.57,3.6 3.57,3.58 3.57,3.56 3.53,3.54 3.47,3.54 Z"
       id="path4"
       inkscape:connector-curvature="0" />
  </g>
</svg>
